src/pos-icons/charity.svg

<svg height="24" viewBox="0 0 24 24" width="24" xmlns="http://www.w3.org/2000/svg"><path d="m12.75 3.94c1-.72 2.16-1.08 3.47-1.08.72 0 1.51.19 2.37.59.86.39 1.54.85 2.04 1.38 1.03 1.28 1.46 2.77 1.31 4.47-.16 1.7-.72 3.03-1.69 3.97l-7.59 7.59c-.19.19-.43.28-.71.28s-.51-.09-.7-.28-.28-.42-.28-.7.09-.52.28-.71l4.59-4.59c.25-.22.25-.45 0-.7s-.48-.25-.7 0l-4.59 4.59c-.19.19-.42.28-.71.28-.28 0-.51-.09-.7-.28s-.28-.42-.28-.7.09-.52.28-.71l4.59-4.59c.27-.25.27-.5 0-.75-.23-.25-.45-.25-.7 0l-4.59 4.64c-.19.19-.44.28-.71.28-.28 0-.52-.09-.73-.28-.2-.19-.3-.42-.3-.7s.11-.53.33-.75l4.6-4.6c.25-.25.25-.48 0-.7s-.49-.22-.71 0l-4.64 4.61c-.22.2-.45.31-.7.31-.28 0-.52-.1-.7-.31-.19-.2-.29-.44-.29-.72s.1-.51.29-.7c3.06-3.08 4.95-4.94 5.67-5.63l3.56 3.52c.39.37.84.56 1.39.56.7 0 1.25-.28 1.66-.84.28-.41.38-.86.3-1.36s-.29-.92-.63-1.27zm2.06 6.33-4.26-4.27-7.08 7.08c-.84-.85-1.32-2.15-1.43-3.92-.11-1.76.37-3.29 1.43-4.57 1.19-1.18 2.61-1.78 4.26-1.78 1.66 0 3.07.6 4.22 1.78l4.27 4.27c.19.19.28.42.28.7s-.09.52-.28.71c-.19.18-.42.28-.72.28-.27 0-.5-.1-.69-.28z"/></svg>

<?xml version="1.0" encoding="UTF-8"?><!DOCTYPE svg PUBLIC "-//W3C//DTD SVG 1.1//EN" "http://www.w3.org/Graphics/SVG/1.1/DTD/svg11.dtd"><svg xmlns="http://www.w3.org/2000/svg" xmlns:xlink="http://www.w3.org/1999/xlink" version="1.1" id="mdi-charity" width="24" height="24" viewBox="0 0 24 24"><path d="M12.75,3.94C13.75,3.22 14.91,2.86 16.22,2.86C16.94,2.86 17.73,3.05 18.59,3.45C19.45,3.84 20.13,4.3 20.63,4.83C21.66,6.11 22.09,7.6 21.94,9.3C21.78,11 21.22,12.33 20.25,13.27L12.66,20.86C12.47,21.05 12.23,21.14 11.95,21.14C11.67,21.14 11.44,21.05 11.25,20.86C11.06,20.67 10.97,20.44 10.97,20.16C10.97,19.88 11.06,19.64 11.25,19.45L15.84,14.86C16.09,14.64 16.09,14.41 15.84,14.16C15.59,13.91 15.36,13.91 15.14,14.16L10.55,18.75C10.36,18.94 10.13,19.03 9.84,19.03C9.56,19.03 9.33,18.94 9.14,18.75C8.95,18.56 8.86,18.33 8.86,18.05C8.86,17.77 8.95,17.53 9.14,17.34L13.73,12.75C14,12.5 14,12.25 13.73,12C13.5,11.75 13.28,11.75 13.03,12L8.44,16.64C8.25,16.83 8,16.92 7.73,16.92C7.45,16.92 7.21,16.83 7,16.64C6.8,16.45 6.7,16.22 6.7,15.94C6.7,15.66 6.81,15.41 7.03,15.19L11.63,10.59C11.88,10.34 11.88,10.11 11.63,9.89C11.38,9.67 11.14,9.67 10.92,9.89L6.28,14.5C6.06,14.7 5.83,14.81 5.58,14.81C5.3,14.81 5.06,14.71 4.88,14.5C4.69,14.3 4.59,14.06 4.59,13.78C4.59,13.5 4.69,13.27 4.88,13.08C7.94,10 9.83,8.14 10.55,7.45L14.11,10.97C14.5,11.34 14.95,11.53 15.5,11.53C16.2,11.53 16.75,11.25 17.16,10.69C17.44,10.28 17.54,9.83 17.46,9.33C17.38,8.83 17.17,8.41 16.83,8.06L12.75,3.94M14.81,10.27L10.55,6L3.47,13.08C2.63,12.23 2.15,10.93 2.04,9.16C1.93,7.4 2.41,5.87 3.47,4.59C4.66,3.41 6.08,2.81 7.73,2.81C9.39,2.81 10.8,3.41 11.95,4.59L16.22,8.86C16.41,9.05 16.5,9.28 16.5,9.56C16.5,9.84 16.41,10.08 16.22,10.27C16.03,10.45 15.8,10.55 15.5,10.55C15.23,10.55 15,10.45 14.81,10.27V10.27Z" /></svg>
